public/skills/docker-logo.svg

<?xml version="1.0" encoding="utf-8"?><!-- Uploaded to: SVG Repo, www.svgrepo.com, Generator: SVG Repo Mixer Tools -->
<svg width="800px" height="800px" viewBox="0 0 32 32" fill="none" xmlns="http://www.w3.org/2000/svg">
<circle cx="16" cy="16" r="14" fill="#1794D4"/>
<path d="M18 7H16V9H18V7Z" fill="white"/>
<path d="M10 10H12V12H10V10Z" fill="white"/>
<path d="M6.00155 16.9414C6.17244 19.8427 7.90027 24 14 24C20.8 24 23.8333 19 24.5 16.5C25.3333 16.5 27.2 16 28 14C27.5 13.5 25.5 13.5 24.5 14C24.5 13.2 24 11.5 23 11C22.3333 11.6667 21.3 13.4 22.5 15C22 16 20.6667 16 20 16H6.9429C6.41342 16 5.97041 16.4128 6.00155 16.9414Z" fill="white"/>
<path d="M9 13H7V15H9V13Z" fill="white"/>
<path d="M10 13H12V15H10V13Z" fill="white"/>
<path d="M15 13H13V15H15V13Z" fill="white"/>
<path d="M16 13H18V15H16V13Z" fill="white"/>
<path d="M21 13H19V15H21V13Z" fill="white"/>
<path d="M15 10H13V12H15V10Z" fill="white"/>
<path d="M16 10H18V12H16V10Z" fill="white"/>
</svg>

<svg width="800" height="800" viewBox="0 0 32 32" fill="none" xmlns="http://www.w3.org/2000/svg"><circle cx="16" cy="16" r="14" fill="#1794D4"/><path d="M18 7h-2v2h2V7zM10 10h2v2h-2v-2zM6.002 16.941C6.172 19.843 7.9 24 14 24c6.8 0 9.833-5 10.5-7.5.833 0 2.7-.5 3.5-2.5-.5-.5-2.5-.5-3.5 0 0-.8-.5-2.5-1.5-3-.667.667-1.7 2.4-.5 4-.5 1-1.833 1-2.5 1H6.943c-.53 0-.973.413-.941.941zM9 13H7v2h2v-2z" fill="#fff"/><path d="M10 13h2v2h-2v-2zM15 13h-2v2h2v-2zM16 13h2v2h-2v-2zM21 13h-2v2h2v-2zM15 10h-2v2h2v-2zM16 10h2v2h-2v-2z" fill="#fff"/></svg>
